picto/arrow-turning-left.svg

<svg class="color-immutable" width="60" height="24" viewBox="0 0 60 24" fill="none" xmlns="http://www.w3.org/2000/svg"><path d="M0 22.5V1.5C0 0.675 0.675 0 1.5 0H58.5C59.325 0 60 0.675 60 1.5V22.5C60 23.325 59.325 24 58.5 24H1.5C0.675 24 0 23.325 0 22.5Z" fill="#2D327D"/><path d="M40.172 0.539993C27.508 0.539993 16.077 5.90699 8.023 14.48L8.527 2.87999L4.5 6.90699V21H18.594L22.621 16.974L11.044 17.477L11.023 17.478C18.308 9.67199 28.678 4.78099 40.173 4.78099C45.224 4.78099 50.058 5.72699 54.509 7.44799L56.033 3.48999C51.108 1.58699 45.761 0.539993 40.172 0.539993Z" fill="white"/></svg>

<svg class="color-immutable" width="60" height="24" viewBox="0 0 60 24" fill="none" xmlns="http://www.w3.org/2000/svg"><g clip-path="url(#a)"><path d="M0 22.5v-21C0 .675.675 0 1.5 0h57c.825 0 1.5.675 1.5 1.5v21c0 .825-.675 1.5-1.5 1.5h-57C.675 24 0 23.325 0 22.5Z" fill="#2D327D"/><path d="M40.172.54C27.508.54 16.077 5.907 8.023 14.48l.504-11.6L4.5 6.907V21h14.094l4.027-4.026-11.577.503-.021.001c7.285-7.806 17.655-12.697 29.15-12.697 5.051 0 9.885.946 14.336 2.667l1.524-3.958A43.91 43.91 0 0 0 40.172.54Z" fill="#fff"/></g><defs><clipPath id="a"><path fill="#fff" d="M0 0h60v24H0z"/></clipPath></defs></svg>
